brandFactory_export/3.Masa/Feliz felicidad emoji_3Masa.svg

<?xml version="1.0" encoding="UTF-8"?>
<svg width="24px" height="24px" viewBox="0 0 24 24" version="1.1" xmlns="http://www.w3.org/2000/svg" xmlns:xlink="http://www.w3.org/1999/xlink">
    <title>3.Masa/Feliz felicidad emoji_3Masa</title>
    <g id="Symbols" stroke="none" stroke-width="1" fill="none" fill-rule="evenodd">
        <g id="3.Masa/Feliz-felicidad-emoji_3Masa" fill="#5CB615" fill-rule="nonzero">
            <path d="M11.8084034,0 C19.2705882,0 23.6235294,3.76806723 23.6235294,11.8151261 C23.6235294,19.8621849 19.2705882,23.6235294 11.8084034,23.6235294 C4.34621849,23.6235294 0,19.8621849 0,11.8151261 C0,3.76806723 4.34621849,0 11.8084034,0 Z M18,13.9361345 C17.9764706,13.9596639 15.687395,16.4268908 11.8521008,16.4672269 C11.8151261,16.4672269 7.9697479,16.605042 5.62689076,13.9831933 C5.35462185,13.6773109 4.88739496,13.6504202 4.58487395,13.9226891 C4.28235294,14.194958 4.25546218,14.6621849 4.52773109,14.9647059 C7.03529412,17.7714286 10.8235294,17.9428571 11.707563,17.9428571 C11.8117647,17.9428571 11.8756303,17.9394958 11.892437,17.9394958 C16.3731092,17.8890756 18.9882353,15.0420168 19.0957983,14.9210084 C19.3680672,14.6184874 19.3411765,14.1546218 19.0420168,13.8823529 C18.7394958,13.610084 18.2722689,13.6302521 18,13.9361345 L18,13.9361345 Z M8.22857143,10.0705882 C8.65546218,10.0705882 9.01176471,9.93613445 9.2605042,9.68403361 C9.50588235,9.43529412 9.62689076,9.09243697 9.62689076,8.66890756 C9.62689076,7.80168067 9.08907563,7.26386555 8.22857143,7.26386555 C7.36470588,7.26386555 6.8302521,7.80168067 6.8302521,8.66890756 C6.8302521,9.09243697 6.95462185,9.43529412 7.19663866,9.68403361 C7.44537815,9.93277311 7.80168067,10.0705882 8.22857143,10.0705882 L8.22857143,10.0705882 Z M15.394958,10.0705882 C15.8218487,10.0705882 16.1781513,9.93613445 16.4268908,9.68067227 C16.6689076,9.43193277 16.7932773,9.08907563 16.7932773,8.66554622 C16.7932773,7.79831933 16.2554622,7.2605042 15.394958,7.2605042 C14.5310924,7.2605042 13.9966387,7.79831933 13.9966387,8.66554622 C13.9966387,9.08907563 14.1210084,9.43193277 14.3663866,9.68067227 C14.6117647,9.93277311 14.9680672,10.0705882 15.394958,10.0705882 L15.394958,10.0705882 Z" id="Feliz-felicidad-emoji_3Masa"></path>
        </g>
    </g>
</svg>

<svg width="24" height="24" viewBox="0 0 24 24" xmlns="http://www.w3.org/2000/svg"><path d="M11.808 0c7.463 0 11.816 3.768 11.816 11.815S19.27 23.624 11.808 23.624C4.346 23.624 0 19.862 0 11.815 0 3.768 4.346 0 11.808 0zM18 13.936c-.024.024-2.313 2.49-6.148 2.531-.037 0-3.882.138-6.225-2.484a.736.736 0 10-1.1.982c2.508 2.806 6.297 2.978 7.18 2.978.105 0 .169-.004.185-.004 4.481-.05 7.096-2.897 7.204-3.018A.737.737 0 0018 13.936zm-9.771-3.865c.426 0 .783-.135 1.032-.387.245-.249.366-.592.366-1.015 0-.867-.538-1.405-1.398-1.405-.864 0-1.399.538-1.399 1.405 0 .423.125.766.367 1.015.248.249.605.387 1.032.387zm7.166 0c.427 0 .783-.135 1.032-.39.242-.25.366-.592.366-1.015 0-.868-.538-1.405-1.398-1.405-.864 0-1.398.537-1.398 1.405 0 .423.124.766.37 1.015.245.252.601.39 1.028.39z" fill="#5CB615" fill-rule="nonzero"/></svg>
